icons/linear-new-nature-planet-universe-borwser.svg

<svg xmlns="http://www.w3.org/2000/svg" width="32px" height="32px" viewBox="0 0 32 32" version="1.1">
    <title>linear-new-nature-planet-universe-borwser</title>
    <g id="linear-new-nature-planet-universe-borwser" stroke-width="1" fill-rule="evenodd">
        <path d="M27.2618865,20.1523183 C25.5729565,24.7330807 21.1679932,28 16,28 C13.0817949,28 10.4068826,26.9583396 8.32680289,25.2265584 C9.37356765,25.2125576 10.4795483,25.1356071 11.6327232,24.9981244 C12.9527253,25.6401939 14.434344,26 16,26 C19.4437968,26 22.4810061,24.2591922 24.2796689,21.6095358 C25.3490182,21.1513402 26.3468898,20.6641692 27.2618865,20.1523183 Z M16,4 C19.9520648,4 23.457913,5.91048071 25.6443737,8.85827143 C28.8357988,9.09032817 30.9701098,10.0499574 31.4548132,11.8588953 C32.3894929,15.3471673 26.0858787,19.509154 17.5529143,21.795555 C9.01994987,24.0819559 1.47986645,23.6293767 0.545186779,20.1411047 C0.060468067,18.3321099 1.42925442,16.4343997 4.0765495,14.6376044 C4.7530213,8.65158822 9.83329233,4 16,4 Z M16,6 C10.4771525,6 6,10.4771525 6,16 C6,17.9025131 6.53128934,19.6809369 7.45359554,21.194999 C10.0589721,21.2338752 13.4457208,20.8255218 17.0352762,19.8637033 C20.6243055,18.9020258 23.7610991,17.5625477 25.9970416,16.2254903 L26,16 C26,10.4771525 21.5228475,6 16,6 Z M4.0548761,17.1551143 L4.03560659,17.1715113 C2.85231055,18.176883 2.3267698,19.0626565 2.47703843,19.6234666 C2.65322029,20.2809863 3.60268807,20.7545367 5.08974109,21.0013573 C4.54216399,19.8109888 4.18486011,18.5161846 4.0548761,17.1551143 Z M26.9257201,11.0284481 L26.9833718,11.1587327 C27.4933364,12.3140025 27.826376,13.5648907 27.9481506,14.8770575 C29.1129321,13.9199865 29.6992522,13.034459 29.5229616,12.3765334 C29.3717389,11.8121626 28.4649917,11.306357 26.9257201,11.0284481 Z" id="&#24418;&#29366;" fill-rule="nonzero" />
    </g>
</svg>

<svg xmlns="http://www.w3.org/2000/svg" viewBox="0 0 32 32"><path fill="currentColor" d="M27.262 20.152C25.573 24.733 21.168 28 16 28a11.951 11.951 0 0 1-7.673-2.773 31.596 31.596 0 0 0 3.306-.229A9.956 9.956 0 0 0 16 26a9.99 9.99 0 0 0 8.28-4.39 31.666 31.666 0 0 0 2.982-1.458M16 4c3.952 0 7.458 1.91 9.644 4.858 3.192.232 5.326 1.192 5.81 3 .935 3.49-5.368 7.651-13.901 9.938C9.02 24.082 1.48 23.629.545 20.14c-.485-1.809.884-3.707 3.532-5.503C4.753 8.652 9.833 4 16 4m0 2C10.477 6 6 10.477 6 16c0 1.903.531 3.68 1.454 5.195 2.605.039 5.992-.37 9.581-1.331 3.59-.962 6.726-2.301 8.962-3.639L26 16c0-5.523-4.477-10-10-10M4.055 17.155l-.02.017c-1.183 1.005-1.708 1.89-1.558 2.451.176.658 1.126 1.132 2.613 1.378a11.897 11.897 0 0 1-1.035-3.846m22.87-6.127.058.13c.51 1.156.843 2.407.965 3.72 1.165-.958 1.751-1.844 1.575-2.501-.151-.565-1.058-1.07-2.597-1.349"/></svg>
